X: 6
P: Hava Nagila Jig
O: trad klezmer
Z: John Chambers <jc@trillian.mit.edu>
N: At end, the last bar is often played at half speed, with note values doubled.
M: 6/8
L: 1/8
K: Gm
|: "D"D3 D3- | D2^F E2D | ^F3 F3- | ^F2A G2F | "G"G3 G3- | G2B A2G | "Cm"^F3 EDE |1 "D"F6 :|2 "D"D6 |
|: "D"^F2F- F2E | D2D D3 | "Cm"E2E- E2D | C2C C3 | C3E2D | C2C G3 | "Cm"^F3 EDE |1 "D"F6 :|2 "D"D6 |]
%|| "Gm"G6 | B6 | G2 B2 | G2 B2 \
%|| "Gm"GGG B2A | G2B A2G | GGG B2A | G2B A2G | \
%| "Cm"AAA c2B | A2c B2A | AAA c2B | A2c B2A \
%| "Cm"AAA "D"d3 | "Cm"AAA "D"d2D | "D7"D2D (4BAG^F | "Gm"G6 |]
